X:60
%%etbk:tnset id:20,pos:3,rep:3
%%etbk:site1 http://www.thesession.org/tunes/display/605
T: Greig's Pipes
Z: Piano Box Version by Martin Fleischmann (www.boxplayer.ch)
M: 4/4
L: 1/8
R: reel
K: Gmaj
|: B3!3!B BAGA | !3!B2GB A!1!G!2!E!1!G | !3!B3B !3!BAGB | !2!A2BG !2!A!1!G!2!E!1!G|
!3!B3B BAGA | !3!B2GB A!1!G!2!E!1!G  | !3!B!4!d!5!e!4!d !3!B!4!c!5!d!4!c | !2!AcB!1!G A!1!G!2!E!4!G ||
|: !1!D!2!GGG !1!D!2!G!4!BG | !1!D!2!G!4!BG !3!AG!1!E!2!G | !1!D!3!GG!2!F !1!G3!2!B | !4!dBAc !2!BGGG :|
|:d!2!d!1!B!2!d !3!ef!5!ge | !2!d!1!GGG !2!A!1!GGG | dd!1!B!2!d !3!ef!5!g!3!g | !4!a2bg !4!ag!1!e!3!g :|

